raw/symbols/zil.svg

<svg width="42" height="42" viewBox="0 0 42 42" fill="none" xmlns="http://www.w3.org/2000/svg">
<circle cx="21" cy="21" r="20" fill="#49C1BF"/>
<path d="M30.7816 18.5698L26.7495 20.3675L16.0529 25.8121L26.7495 30.9549V22.4542L30.7816 20.6372V33.1957L26.7495 34.9934L11 27.4558V23.4494L21.902 18.1011L11 12.8619V8.79774L15.0963 7L30.7816 14.5505V18.5698Z" fill="#F3F3F3"/>
<path d="M11 8.79774L26.7495 16.3483L30.7816 14.5505L15.0963 7L11 8.79774Z" fill="#7FD3D2"/>
<path d="M26.749 16.33L30.7811 14.5322V18.5515L26.749 20.3492V16.33Z" fill="#BEE9E8"/>
<path d="M26.749 34.9715L30.7811 33.1738V20.6152L26.749 22.4322V34.9715Z" fill="#BEE9E8"/>
<path d="M11 8.80469V12.8689L21.902 18.108L11 23.4563V27.4627L26.7495 35.0004V30.9683L16.0529 25.819L26.7495 20.3745V16.3552L11 8.80469Z" fill="#F3F3F3"/>
</svg>

<svg xmlns="http://www.w3.org/2000/svg" width="42" height="42" fill="none"><circle cx="21" cy="21" r="20" fill="#49C1BF"/><path fill="#F3F3F3" d="m30.782 18.57-4.032 1.797-10.697 5.445 10.697 5.143v-8.5l4.032-1.818v12.559l-4.032 1.797L11 27.456v-4.007l10.902-5.348L11 12.861V8.799L15.096 7l15.686 7.55v4.02Z"/><path fill="#7FD3D2" d="m11 8.798 15.75 7.55 4.032-1.797L15.096 7 11 8.798Z"/><path fill="#BEE9E8" d="m26.749 16.33 4.032-1.798v4.02l-4.032 1.797V16.33ZM26.749 34.971l4.032-1.797V20.615l-4.032 1.817v12.54Z"/><path fill="#F3F3F3" d="M11 8.805v4.064l10.902 5.239L11 23.456v4.007L26.75 35v-4.032L16.053 25.82l10.697-5.444v-4.02L11 8.805Z"/></svg>
